img/single_icon.svg

<svg height="159" viewBox="0 0 163 159" width="163" xmlns="http://www.w3.org/2000/svg"><path d="m23.667 36.311c9.826 0 17.794-7.965 17.794-17.796 0-9.825-7.968-17.793-17.794-17.793-9.827 0-17.795 7.968-17.795 17.793 0 9.83 7.968 17.796 17.795 17.796zm12.458 8.689h-24.922c-6.115 0-11.203 4.387-11.203 10.673v39.271c0 4.412 2.509 8.982 6.245 11.32-.017.303-.245.607-.245.918v39.271c0 6.285 3.404 12.547 8.101 12.547h19.131c4.701 0 7.769-6.262 7.769-12.549v-39.27c0-.214-.226-.418-.231-.627 3.812-2.23 6.231-7.007 6.231-11.613v-39.27c-.001-6.284-4.755-10.671-10.876-10.671z" transform="translate(57)"/></svg>

<svg xmlns="http://www.w3.org/2000/svg" width="163" height="159" viewBox="0 0 163 159">
  <path d="M23.667 36.311C33.493 36.311 41.461 28.346 41.461 18.515 41.461 8.69 33.493.722 23.667.722 13.84.722 5.872 8.69 5.872 18.515 5.872 28.345 13.84 36.311 23.667 36.311zM36.125 45L11.203 45C5.088 45 0 49.387 0 55.673L0 94.944C0 99.356 2.509 103.926 6.245 106.264 6.228 106.567 6 106.871 6 107.182L6 146.453C6 152.738 9.404 159 14.101 159L33.232 159C37.933 159 41.001 152.738 41.001 146.451L41.001 107.181C41.001 106.967 40.775 106.763 40.77 106.554 44.582 104.324 47.001 99.547 47.001 94.941L47.001 55.671C47 49.387 42.246 45 36.125 45L36.125 45z" transform="translate(57)"/>
</svg>
